raw/symbols/sfrx-eth.svg

<svg width="36" height="36" viewBox="0 0 36 36" fill="none" xmlns="http://www.w3.org/2000/svg">
<path d="M17.9991 35.9982C15.5697 35.9982 13.2126 35.522 10.9927 34.5835C8.84906 33.6767 6.92508 32.3788 5.27159 30.7266C3.61938 29.0744 2.32148 27.1491 1.41473 25.0055C0.476234 22.7856 0 20.4285 0 17.9991C0 15.5697 0.476234 13.2126 1.41473 10.9927C2.32148 8.84906 3.61938 6.92508 5.27159 5.27159C6.92508 3.61938 8.84906 2.32148 10.9927 1.41473C13.2126 0.476234 15.5697 0 17.9991 0C20.4285 0 22.7856 0.476234 25.0055 1.41473C27.1491 2.32148 29.0731 3.61938 30.7266 5.27159C32.3788 6.92381 33.6767 8.84906 34.5835 10.9927C35.522 13.2126 35.9982 15.5697 35.9982 17.9991C35.9982 20.4285 35.522 22.7856 34.5835 25.0055C33.6767 27.1491 32.3788 29.0731 30.7266 30.7266C29.0744 32.3788 27.1491 33.6767 25.0055 34.5835C22.7856 35.5232 20.4285 35.9982 17.9991 35.9982Z" fill="white"/>
<path d="M17.999 35.0439C27.4129 35.0439 35.0443 27.4124 35.0443 17.9985C35.0443 8.58459 27.4129 0.953125 17.999 0.953125C8.58508 0.953125 0.953613 8.58459 0.953613 17.9985C0.953613 27.4124 8.58508 35.0439 17.999 35.0439Z" fill="black"/>
<path d="M18.4172 11.2174C20.6943 11.4206 22.4862 13.3065 22.5421 15.6229L26.0357 17.0745L24.2146 14.1053L28.0867 10.2332L25.7728 7.91936L22.4557 11.2378L18.4185 4.6543V11.2174H18.4172Z" fill="white"/>
<path d="M22.4824 16.4844C22.1471 18.5011 20.4809 20.0669 18.4172 20.2523V22.65L26.1056 17.9905L22.4824 16.4844Z" fill="white"/>
<path d="M13.5331 16.4844L9.90991 17.9893L17.5982 22.6487V20.2511C15.5346 20.0669 13.8684 18.5011 13.5331 16.4844Z" fill="white"/>
<path d="M26.0192 20.4336L18.4172 25.041V31.1431L21.5451 26.7351L24.8102 30.0002L27.1241 27.6863L23.4666 24.0288L26.0192 20.4336Z" fill="white"/>
<path d="M17.5994 25.041L9.99744 20.4336L12.5501 24.0288L8.89258 27.6863L11.2064 30.0002L14.4715 26.7364L17.5994 31.1419V25.041Z" fill="white"/>
<path d="M9.98042 17.0757L13.4741 15.6242C13.53 13.3078 15.3219 11.4219 17.5989 11.2187V4.6543L13.5617 11.2378L10.2433 7.91936L7.92944 10.2345L11.8015 14.1066L9.98042 17.0757Z" fill="white"/>
<path d="M18.1693 15.2149C17.0479 14.8708 17.0479 14.6803 17.0479 14.5266C17.0479 14.3133 17.3705 14.0186 17.9763 14.0186C18.3344 14.0186 18.9364 14.1075 18.9364 14.7069H20.0272C20.0272 13.6427 19.203 12.9277 17.9763 12.9277C16.6644 12.9277 15.957 13.7519 15.957 14.5266C15.957 15.5858 16.8866 15.9617 17.8416 16.2563C18.963 16.6004 18.9694 16.7935 18.9694 16.9471C18.9694 17.1605 18.6468 17.4551 18.041 17.4551C17.6816 17.4551 17.0809 17.3662 17.0809 16.7668H15.9901C15.9901 17.831 16.8143 18.546 18.041 18.546C19.3529 18.546 20.0603 17.7218 20.0603 16.9471C20.0615 15.8867 19.1256 15.5083 18.1693 15.2149Z" fill="white"/>
</svg>

<svg xmlns="http://www.w3.org/2000/svg" width="36" height="36" fill="none"><path fill="#fff" d="M18 35.998a17.956 17.956 0 0 1-12.728-5.272A17.941 17.941 0 0 1 0 18 17.955 17.955 0 0 1 5.272 5.271 17.955 17.955 0 0 1 17.999 0a17.956 17.956 0 0 1 12.728 5.272 17.942 17.942 0 0 1 5.271 12.727 17.957 17.957 0 0 1-5.272 12.728A17.943 17.943 0 0 1 18 35.998Z"/><path fill="#000" d="M17.999 35.044c9.414 0 17.045-7.632 17.045-17.045C35.044 8.585 27.413.953 18 .953 8.585.953.954 8.585.954 18c0 9.413 7.631 17.045 17.045 17.045Z"/><path fill="#fff" d="M18.417 11.217a4.535 4.535 0 0 1 4.125 4.406l3.494 1.452-1.821-2.97 3.872-3.872-2.314-2.314-3.317 3.319-4.037-6.584v6.563h-.002ZM22.482 16.484a4.54 4.54 0 0 1-4.065 3.768v2.398l7.689-4.66-3.624-1.506ZM13.533 16.484 9.91 17.99l7.688 4.66V20.25a4.537 4.537 0 0 1-4.065-3.767ZM26.02 20.434l-7.603 4.607v6.102l3.128-4.408L24.81 30l2.314-2.314-3.657-3.657 2.552-3.595ZM17.6 25.041l-7.603-4.607 2.553 3.595-3.657 3.657L11.206 30l3.266-3.264 3.127 4.406V25.04ZM9.98 17.076l3.494-1.452A4.535 4.535 0 0 1 17.6 11.22V4.654l-4.037 6.584-3.319-3.319-2.314 2.316 3.873 3.872-1.822 2.969ZM18.17 15.215c-1.122-.344-1.122-.535-1.122-.688 0-.214.323-.508.928-.508.358 0 .96.088.96.688h1.091c0-1.064-.824-1.78-2.05-1.78-1.313 0-2.02.825-2.02 1.6 0 1.059.93 1.435 1.885 1.73 1.121.343 1.127.537 1.127.69 0 .213-.322.508-.928.508-.36 0-.96-.089-.96-.688h-1.09c0 1.064.823 1.779 2.05 1.779 1.312 0 2.02-.824 2.02-1.599 0-1.06-.935-1.439-1.892-1.732Z"/></svg>
